X:267
T:Steirer (65.)
C:traditionell
A:Salzkammergut
S:MIDI erhalten von Christian Amon. Nach einer kopie im besitz von Johann Stoeckl eines manuscriptes. Stoeckl(zitiert von Amon): "diese sammlung wurde 1935 im hause der familie Hohenlohe-Schillingfuerst gefunden. Sie wurde von einem der beiden brueder Steinegger 1866 verfasst. Die originale sind im Ausseer Kammerhofmuseum".
M:3/4
L:1/8
K:G
V:1
GE DB DG | FE Dc F2 | FE Dc DF | GE DB G2 |\
GE DB DG | FE Dc F2 | FE Dc DF | G4 z2 |*
V:2
BA Gd GB | AG Fe A2 | AG Fe FA | BG Gd B2 |\
BA Gd GB | AG Fe A2 | AG Fe FA | B4 z2 |*
